X:18
T:The Cuckoo's Nest
R:hornpipe
H:Used for the Hounds dance "The Cuckoo's Nest"
H:Tune is the same as the Bampton-style "Binghamton Stick Dance"
M:4/4
K:G
c>dc>B A2 a2 | e2 e2 d2> c | B>cB>A G2 A>B | c2 d2 A4 :|
a2 a2 a2 b>a | ^g2 e2 e3 f | g2 g2 g2 a>g | f2 d2 d4 |
c>dc>B A2 a2 | e2 e2 d2> c | B>cB>A G2 A>B | c2 d2 A4 |]
